svg/fluentui-system-icons/ic_fluent_mountain_location_top_24_filled.svg

<svg width="24" height="24" viewBox="0 0 24 24" fill="none" xmlns="http://www.w3.org/2000/svg">
<path d="M15 4.34315C15 5.46517 13.6242 7.46008 12.736 8.63107C12.3613 9.1251 11.6387 9.1251 11.264 8.63107C10.9309 8.19195 10.5293 7.63697 10.1573 7.0556C10.1042 6.97252 10.0516 6.88891 10 6.80501C9.44922 5.91044 9 4.98429 9 4.34315C9 2.68629 10.3431 1 12 1C13.6569 1 15 2.68629 15 4.34315ZM11.1288 5.22122C11.1288 5.22122 11.1288 5.22122 11.1288 5.22122C11.3744 5.39672 11.6751 5.49999 12 5.49999C12.3249 5.49999 12.6256 5.39672 12.8712 5.22122C12.8712 5.22122 12.8712 5.22122 12.8712 5.22122C13.2518 4.94917 13.5 4.50357 13.5 4C13.5 3.17157 12.8284 2.5 12 2.5C11.1716 2.5 10.5 3.17157 10.5 4C10.5 4.50357 10.7482 4.94917 11.1288 5.22122ZM6.07765 11.823L9.75878 8.25987C9.47779 7.85419 9.19061 7.41352 8.93399 6.97061L2.98964 12.7244C2.35711 13.3366 2 14.1793 2 15.0596V18.75C2 19.9926 3.00736 21 4.25 21H19.75C20.9926 21 22 19.9926 22 18.75V15.0596C22 14.1793 21.6429 13.3366 21.0104 12.7244L15.066 6.97061C14.8094 7.41352 14.5222 7.85419 14.2412 8.25987L16.3225 10.2745C15.6109 10.36 14.9393 10.5308 14.3025 10.7384C13.6215 10.9605 12.9191 11.2495 12.2622 11.5197C11.875 11.679 11.5035 11.8318 11.1616 11.9605C10.1789 12.3306 9.28382 12.5735 8.37965 12.5426C7.6694 12.5184 6.91341 12.3234 6.07765 11.823Z" fill="#212121"/>
</svg>

<svg xmlns="http://www.w3.org/2000/svg" width="24" height="24"><path d="M15 4.343c0 1.122-1.376 3.117-2.264 4.288a.916.916 0 0 1-1.472 0A24.682 24.682 0 0 1 10 6.805c-.55-.895-1-1.82-1-2.462C9 2.686 10.343 1 12 1s3 1.686 3 3.343Zm-3.871.878a1.493 1.493 0 0 0 1.742 0 1.5 1.5 0 1 0-1.742 0Zm-5.051 6.602 3.68-3.563a19.242 19.242 0 0 1-.824-1.29L2.99 12.725A3.25 3.25 0 0 0 2 15.06v3.69A2.25 2.25 0 0 0 4.25 21h15.5A2.25 2.25 0 0 0 22 18.75v-3.69a3.25 3.25 0 0 0-.99-2.336l-5.944-5.753a19.23 19.23 0 0 1-.825 1.289l2.082 2.014a10.57 10.57 0 0 0-2.02.464c-.682.223-1.384.511-2.04.782-.388.159-.76.312-1.101.44-.983.37-1.878.613-2.782.583-.71-.025-1.467-.22-2.302-.72Z"/></svg>
